X:14
T:No.134 Francie Dearg Jig
M:6/8
L:1/8
C:jig
K:D
dcd efg|fed cBA|BdB AGF|GEE EFA|
dcd efg|fed cBA|BdB AGE|[1FDD D2c:|[2FDD Dfg||
a2d f2d|a2d f2d|b3 a2f|efe efg|
a2d f2d|a2d f2d|b3 a2f|ded dfg|
a2d f2d|a2d f2d|b3 a2f|efe efg|
a2d f2d|a2d f2d|b3 a2f|dcd ABc||
